icons/svg/32x32/web/outline.svg

<svg xmlns="http://www.w3.org/2000/svg" width="32" height="32" viewBox="0 0 32 32">
  <path fill-rule="evenodd" d="M27.2998,20 L23.6638,20 C23.8798,18.731 23.9998,17.391 23.9998,16 C23.9998,14.609 23.8798,13.269 23.6638,12 L27.2998,12 C27.7448,13.253 27.9998,14.596 27.9998,16 C27.9998,17.404 27.7448,18.747 27.2998,20 L27.2998,20 Z M21.0298,26.88 C21.9548,25.569 22.7028,23.9 23.2198,22 L26.3758,22 C25.1408,24.128 23.2738,25.839 21.0298,26.88 L21.0298,26.88 Z M5.6238,22 L8.7798,22 C9.2968,23.9 10.0448,25.569 10.9698,26.88 C8.7268,25.839 6.8598,24.128 5.6238,22 L5.6238,22 Z M4.6998,12 L8.3358,12 C8.1198,13.269 7.9998,14.609 7.9998,16 C7.9998,17.391 8.1198,18.731 8.3358,20 L4.6998,20 C4.2548,18.747 3.9998,17.404 3.9998,16 C3.9998,14.596 4.2548,13.253 4.6998,12 L4.6998,12 Z M10.9698,5.12 C10.0448,6.431 9.2968,8.1 8.7798,10 L5.6238,10 C6.8598,7.872 8.7268,6.161 10.9698,5.12 L10.9698,5.12 Z M16.9998,10 L16.9998,4.203 C18.6208,4.831 20.2148,6.93 21.1528,10 L16.9998,10 Z M16.9998,27.797 L16.9998,22 L21.1528,22 C20.2148,25.07 18.6208,27.169 16.9998,27.797 L16.9998,27.797 Z M14.9998,22 L14.9998,27.797 C13.3788,27.169 11.7848,25.07 10.8478,22 L14.9998,22 Z M14.9998,4.203 L14.9998,10 L10.8478,10 C11.7848,6.93 13.3788,4.831 14.9998,4.203 L14.9998,4.203 Z M9.9998,16 C9.9998,14.569 10.1348,13.232 10.3638,12 L14.9998,12 L14.9998,20 L10.3638,20 C10.1348,18.768 9.9998,17.431 9.9998,16 L9.9998,16 Z M21.9998,16 C21.9998,17.431 21.8648,18.768 21.6358,20 L16.9998,20 L16.9998,12 L21.6358,12 C21.8648,13.232 21.9998,14.569 21.9998,16 L21.9998,16 Z M26.3758,10 L23.2198,10 C22.7028,8.1 21.9548,6.431 21.0298,5.12 C23.2738,6.161 25.1408,7.872 26.3758,10 L26.3758,10 Z M15.9998,2 C8.2678,2 1.9998,8.268 1.9998,16 C1.9998,23.732 8.2678,30 15.9998,30 C23.7328,30 29.9998,23.732 29.9998,16 C29.9998,8.268 23.7328,2 15.9998,2 L15.9998,2 Z"/>
</svg>

<svg width="32" height="32" fill="none" xmlns="http://www.w3.org/2000/svg">
  <path fill-rule="evenodd" clip-rule="evenodd" d="M27.3 20h-3.636c.216-1.269.336-2.609.336-4s-.12-2.731-.336-4H27.3c.445 1.253.7 2.596.7 4s-.255 2.747-.7 4zm-6.27 6.88c.925-1.311 1.673-2.98 2.19-4.88h3.156a12.054 12.054 0 01-5.346 4.88zM5.624 22H8.78c.517 1.9 1.265 3.569 2.19 4.88A12.065 12.065 0 015.624 22zM4.7 12h3.636A23.856 23.856 0 008 16c0 1.391.12 2.731.336 4H4.7a11.922 11.922 0 01-.7-4c0-1.404.255-2.747.7-4zm6.27-6.88C10.045 6.431 9.297 8.1 8.78 10H5.624a12.065 12.065 0 015.346-4.88zM17 10V4.203c1.62.628 3.215 2.727 4.153 5.797H17zm0 17.797V22h4.153c-.938 3.07-2.532 5.169-4.153 5.797zM15 22v5.797c-1.621-.628-3.215-2.727-4.152-5.797H15zm0-17.797V10h-4.152c.937-3.07 2.53-5.169 4.152-5.797zM10 16c0-1.431.135-2.768.364-4H15v8h-4.636A21.874 21.874 0 0110 16zm12 0c0 1.431-.135 2.768-.364 4H17v-8h4.636c.229 1.232.364 2.569.364 4zm4.376-6H23.22c-.517-1.9-1.265-3.569-2.19-4.88A12.054 12.054 0 0126.376 10zM16 2C8.268 2 2 8.268 2 16s6.268 14 14 14c7.733 0 14-6.268 14-14S23.733 2 16 2z" fill="#000"/>
</svg>
